images/icons/grafana.svg

<?xml version="1.0" encoding="utf-8"?><!-- Uploaded to: SVG Repo, www.svgrepo.com, Generator: SVG Repo Mixer Tools -->
<svg width="800px" height="800px" viewBox="0 0 21 22" xmlns="http://www.w3.org/2000/svg" fill="none">
<path d="M20.3595 9.74907C20.3204 9.3967 20.2812 8.96601 20.1246 8.49618 20.0071 8.02634 19.8114 7.51736 19.5373 6.96922 19.2632 6.42108 18.9109 5.87293 18.4802 5.32479 18.3236 5.12903 18.1278 4.89411 17.8929 4.69835 18.2061 3.44546 17.5014 2.38833 17.5014 2.38833 16.3268 2.31002 15.5437 2.7407 15.2696 2.97562 15.2305 2.97562 15.1913 2.93647 15.113 2.89731 14.9173 2.81901 14.7215 2.7407 14.4866 2.6624 14.2517 2.58409 14.0559 2.54494 13.821 2.46663 13.5861 2.42748 13.3511 2.38833 13.1554 2.34917 13.1162 2.34917 13.0771 2.34917 13.0379 2.34917 12.5289.704752 11.0411.0 11.0411.0 9.3967 1.05713 9.08348 2.50579 9.08348 2.50579s0 .0391499999999998.0.0783C9.00517 2.62324 8.88771 2.62324 8.8094 2.6624 8.69194 2.70155 8.57448 2.7407 8.41787 2.77986 8.30041 2.81901 8.18296 2.85816 8.02634 2.93647 7.79143 3.05393 7.51736 3.17138 7.28244 3.28884 7.04752 3.4063 6.81261 3.56291 6.57769 3.71953 6.53854 3.71953 6.53854 3.68037 6.53854 3.68037c-2.31002-.86136-4.34598.19577-4.34598.19577C1.9968 6.30362 3.09308 7.86973 3.328 8.1438 3.28884 8.30041 3.21054 8.45703 3.17139 8.61364c-.15661.54814-.31323 1.13543-.39153 1.72276C2.77986 10.4147 2.7407 10.493 2.7407 10.5713.626446 11.6284.0 13.7818.0 13.7818c1.76188 2.036 3.83699 2.1534 3.83699 2.1534C4.11106 16.4051 4.38513 16.8357 4.7375 17.2664 4.89411 17.423 5.05073 17.6188 5.16819 17.7754 4.54174 19.6156 5.24649 21.1426 5.24649 21.1426 7.20413 21.2209 8.49618 20.2812 8.77025 20.0463 8.96601 20.1246 9.16178 20.1637 9.35754 20.2421 9.94483 20.3987 10.5713 20.477 11.1977 20.5161c.156600000000001.0.3133.0.469900000000001.0H11.7459 11.785 11.8633 11.9416c.9397 1.3312 2.545 1.527 2.545 1.527 1.1746-1.2138 1.2137-2.4275 1.2137-2.7016V19.3024 19.2632C15.9352 19.1066 16.1701 18.9109 16.4051 18.7151 16.8749 18.2844 17.2664 17.8146 17.6188 17.3056 17.658 17.2664 17.6971 17.2273 17.6971 17.149 19.0283 17.2273 19.9288 16.3268 19.9288 16.3268c-.2349-1.3704-1.018-2.036-1.1746-2.1534H18.7151C18.7151 14.095 18.7151 14.0167 18.7151 13.9384c0-.156599999999999.0-.3132.0-.4306V13.312 13.2728 13.2337 13.1945 13.1162v-.1174C18.7151 12.9596 18.7151 12.9205 18.7151 12.8813 18.7151 12.8422 18.7151 12.803 18.7151 12.7638v-.1174-.1175C18.6759 12.3723 18.6759 12.2157 18.6368 12.0982 18.4802 11.511 18.2844 10.9628 17.9712 10.4538 17.658 9.94484 17.3056 9.51415 16.8749 9.12263 16.4442 8.7311 15.9744 8.45703 15.4654 8.22211 14.9564 7.98719 14.4474 7.86973 13.8993 7.79143 13.6252 7.75227 13.3903 7.75227 13.1162 7.75227H13.0379 12.9988 12.9596 12.9205 12.8422C12.803 7.75227 12.7638 7.75227 12.7247 7.75227 12.6072 7.75227 12.4506 7.79143 12.3332 7.79143 11.8242 7.86973 11.3152 8.0655 10.8845 8.33957 10.4538 8.61364 10.0623 8.92686 9.74907 9.27924 9.43585 9.63161 9.20093 10.0623 9.04432 10.493 8.88771 10.9237 8.8094 11.3543 8.77025 11.785c0 .1175.0.1958.0.3132C8.77025 12.1374 8.77025 12.1374 8.77025 12.1766V12.2549c0 .0391000000000012.0.1174.0.156600000000001C8.8094 12.6072 8.84856 12.8422 8.88771 13.0379 9.00517 13.4294 9.20093 13.7818 9.3967 14.095 9.63161 14.4083 9.90568 14.6432 10.1798 14.8389 10.4538 15.0347 10.7671 15.1913 11.0803 15.2696 11.3935 15.3479 11.6676 15.3871 11.9808 15.3871c.0390999999999995.0.0783000000000005.0.1174.0H12.1374 12.1766C12.2157 15.3871 12.2549 15.3871 12.2549 15.3871s0 0 .0391000000000012.0H12.3332 12.3723C12.4115 15.3871 12.4506 15.3871 12.4898 15.3871 12.5289 15.3871 12.5681 15.3871 12.6072 15.3479 12.6855 15.3479 12.7247 15.3088 12.803 15.3088 12.9205 15.2696 13.0379 15.2305 13.1554 15.1522c.1174-.039200000000001.1957-.1175.3132-.1958C13.5077 14.9564 13.5078 14.9173 13.5469 14.8781 13.6644 14.7998 13.6644 14.6432 13.5861 14.5649S13.3903 14.4474 13.312 14.5257C13.2728 14.5257 13.2728 14.5649 13.2337 14.5649 13.1554 14.604 13.0771 14.6432 12.9596 14.6823 12.8813 14.7215 12.7638 14.7215 12.6855 14.7606 12.6464 14.7606 12.5681 14.7606 12.5289 14.7606 12.4898 14.7606 12.4898 14.7606 12.4506 14.7606 12.4115 14.7606 12.4115 14.7606 12.3723 14.7606 12.3332 14.7606 12.3332 14.7606 12.294 14.7606 12.2549 14.7606 12.2157 14.7606 12.2157 14.7606H12.1766 12.1374C12.0982 14.7606 12.0983 14.7606 12.0591 14.7606 11.8242 14.7215 11.6284 14.6823 11.3935 14.5649 11.1586 14.4866 10.9628 14.33 10.767 14.1734 10.5713 14.0167 10.4147 13.7818 10.2972 13.5861 10.1798 13.3903 10.0623 13.1162 10.0231 12.8422 9.98399 12.7247 9.98399 12.5681 9.98399 12.4506 9.98399 12.4115 9.98399 12.3723 9.98399 12.3332V12.294 12.2549C9.98399 12.1766 9.98399 12.0982 10.0231 12.0199c.1175-.587299999999999.3916-1.1354.8614-1.6052C11.002 10.2972 11.1194 10.2189 11.2369 10.1014 11.3543 10.0231 11.511 9.94484 11.6284 9.86653 11.785 9.78823 11.9416 9.74907 12.0591 9.70992 12.2157 9.67077 12.3723 9.63161 12.5289 9.63161c.0783000000000005.0.156599999999999.0.2349.0H12.803 12.8813 12.9205 12.9988C13.1554 9.63161 13.3511 9.67077 13.5077 9.70992 13.8601 9.78822 14.1733 9.90568 14.4866 10.1014 15.113 10.4538 15.622 11.002 15.9744 11.6284 16.131 11.9416 16.2485 12.294 16.3268 12.6464 16.3268 12.7247 16.3659 12.8422 16.3659 12.9205V12.9988 13.0771C16.3659 13.1162 16.3659 13.1162 16.3659 13.1554 16.3659 13.1945 16.3659 13.1945 16.3659 13.2337V13.312 13.3903c0 .0390999999999995.0.1174.0.156600000000001C16.3659 13.6644 16.3659 13.7427 16.3268 13.8601 16.3268 13.9384 16.2876 14.0559 16.2876 14.1342S16.2484 14.33 16.2093 14.4083C16.1701 14.604 16.0918 14.7998 16.0135 14.9564 15.8569 15.3088 15.6612 15.6612 15.4262 16.0135 14.9564 16.64 14.33 17.1881 13.5861 17.5013 13.2337 17.658 12.8422 17.7754 12.4506 17.8537 12.2549 17.8929 12.0591 17.8929 11.8633 17.932H11.8242 11.785 11.7067 11.6284 11.5893c.0390999999999995.0.0.0.0.0-.1175.0-.1958.0-.3133.0C10.8454 17.8929 10.4147 17.8146 10.0231 17.6971 9.63161 17.5797 9.20093 17.423 8.84856 17.2273 8.10465 16.8357 7.43905 16.2876 6.89091 15.622c-.27407-.3132-.50899-.6656-.6656-1.0571C6.02954 14.1734 5.87294 13.7818 5.75548 13.3903 5.63802 12.9988 5.55972 12.5681 5.55972 12.1766V12.0982 12.0591 11.9808v-.2349V11.7067 11.6284 11.5893c0-.0391999999999992.0-.1175.0-.156699999999999C5.55972 11.2369 5.59887 11.002 5.59887 10.8062 5.63802 10.6104 5.67717 10.3755 5.71633 10.1798 5.75548 9.98399 5.79463 9.74907 5.87293 9.55331 5.99039 9.16178 6.14701 8.77025 6.30362 8.37872 6.65599 7.63482 7.08667 6.96922 7.63481 6.46023 7.75227 6.34277 7.90889 6.18616 8.0655 6.0687 8.22211 5.95124 8.37873 5.83378 8.53534 5.75548 8.69195 5.63802 8.84855 5.55971 9.00517 5.48141 9.08347 5.44225 9.16178 5.4031 9.24009 5.36395 9.27924 5.36395 9.31839 5.32479 9.35754 5.32479S9.43585 5.28564 9.47501 5.28564C9.63162 5.20734 9.82738 5.16818 9.98399 5.08988 10.0231 5.08988 10.0623 5.05072 10.1015 5.05072 10.1406 5.05072 10.1798 5.01157 10.2189 5.01157 10.2972 4.97242 10.4147 4.97242 10.493 4.93327 10.5321 4.93327 10.5713 4.89411 10.6496 4.89411 10.6887 4.89411 10.7279 4.89411 10.8062 4.85496 10.8454 4.85496 10.8845 4.85496 10.9628 4.81581H11.0411 11.1194C11.1586 4.81581 11.1977 4.81581 11.276 4.77665 11.3152 4.77665 11.3935 4.77665 11.4327 4.7375 11.4718 4.7375 11.5501 4.7375 11.5893 4.7375 11.6284 4.7375 11.6676 4.7375 11.7067 4.7375H11.785 11.8242 11.8633C11.9025 4.7375 11.9808 4.7375 12.0199 4.7375H12.0982s.0391999999999992.0.0.0H12.1374C12.1766 4.7375 12.2157 4.7375 12.2549 4.7375 12.4506 4.7375 12.6072 4.7375 12.803 4.7375 13.1554 4.7375 13.5077 4.77665 13.8601 4.85496 14.5257 4.97242 15.1522 5.20734 15.7395 5.48141s1.0962.62644 1.5269 1.01797C17.3056 6.53853 17.3056 6.53853 17.3447 6.57769 17.3839 6.61684 17.3839 6.61684 17.423 6.65599 17.4622 6.69515 17.5405 6.7343 17.5796 6.8126 17.6188 6.89091 17.6971 6.89091 17.7363 6.96922 17.7754 7.04752 17.8537 7.08668 17.8929 7.12583 18.0886 7.32159 18.2452 7.51736 18.4019 7.75227 18.7151 8.1438 18.9892 8.57448 19.1849 8.96601 19.1849 9.00517 19.2241 9.00517 19.2241 9.04432 19.2241 9.08347 19.2632 9.08347 19.2632 9.12263 19.3024 9.16178 19.3024 9.20093 19.3415 9.27924 19.3807 9.31839 19.3807 9.35754 19.4198 9.43585 19.459 9.475 19.459 9.51415 19.4981 9.59246 19.5765 9.78823 19.6548 9.94484 19.6939 10.1014 19.7722 10.3755 19.8505 10.6104 19.8897 10.8062 19.9288 10.8845 20.0071 10.9628 20.0854 10.9237 20.1637 10.9237 20.2421 10.8454 20.2421 10.767 20.3987 10.2972 20.3987 10.0231 20.3595 9.74907z" fill="url(#paint0_linear_16731_2713)"></path>
<defs><linearGradient id="paint0_linear_16731_2713" x1="10.2543" y1="28" x2="10.2543" y2="2.5" gradientUnits="userSpaceOnUse"><stop stop-color="#fff100"></stop><stop offset="1" stop-color="#f05a28"></stop></linearGradient></defs>
</svg>

<svg xmlns="http://www.w3.org/2000/svg" aria-label="Grafana" role="img" viewBox="0 0 24 24">
  <defs>
    <linearGradient id="a" x1="10.254" x2="10.254" y1="28" y2="2.5" gradientUnits="userSpaceOnUse">
      <stop stop-color="#fff100"/>
      <stop offset="1" stop-color="#f05a28"/>
    </linearGradient>
  </defs>
  <path fill="url(#a)" d="M20.36 9.75c-.04-.353-.079-.784-.235-1.254a7.6 7.6 0 0 0-.588-1.527 9.7 9.7 0 0 0-1.057-1.644 4.3 4.3 0 0 0-.587-.627c.313-1.253-.392-2.31-.392-2.31-1.174-.078-1.957.353-2.231.588-.04 0-.079-.04-.157-.079a11 11 0 0 0-.626-.235c-.235-.078-.431-.117-.666-.195-.235-.04-.47-.079-.666-.118h-.117C12.528.705 11.04 0 11.04 0 9.397 1.057 9.083 2.506 9.083 2.506v.078c-.078.04-.195.04-.274.078a5 5 0 0 1-.391.118 3 3 0 0 0-.392.156c-.235.118-.509.235-.744.353a7 7 0 0 0-.704.43c-.04 0-.04-.039-.04-.039-2.31-.861-4.345.196-4.345.196-.196 2.428.9 3.994 1.135 4.268-.04.156-.117.313-.157.47-.156.548-.313 1.135-.391 1.722 0 .079-.04.157-.04.235C.627 11.628 0 13.781 0 13.781c1.762 2.037 3.837 2.154 3.837 2.154.274.47.548.9.9 1.331.157.157.314.353.431.51-.626 1.84.078 3.367.078 3.367 1.958.078 3.25-.862 3.524-1.097.196.079.392.118.588.196a9.5 9.5 0 0 0 1.84.274h.744c.94 1.331 2.545 1.527 2.545 1.527 1.174-1.214 1.213-2.427 1.213-2.701v-.079c.235-.156.47-.352.705-.548.47-.43.861-.9 1.214-1.41.039-.039.078-.078.078-.156 1.331.078 2.232-.822 2.232-.822-.235-1.37-1.018-2.036-1.175-2.154h-.039V12.53c-.04-.157-.04-.313-.078-.43-.157-.588-.353-1.136-.666-1.645a6 6 0 0 0-1.096-1.331c-.43-.392-.9-.666-1.41-.9-.509-.236-1.018-.353-1.566-.432-.274-.039-.509-.039-.783-.039h-.391c-.118 0-.274.04-.392.04a3.8 3.8 0 0 0-1.449.548c-.43.274-.822.587-1.135.94a3.8 3.8 0 0 0-.705 1.213c-.156.43-.235.861-.274 1.292v.626c.04.196.079.431.118.627.117.391.313.744.509 1.057.235.313.509.548.783.744s.587.352.9.43.588.118.9.118h.51c.039 0 .078 0 .117-.04.079 0 .118-.038.196-.038.117-.04.235-.079.352-.157.118-.039.196-.117.314-.196.039 0 .039-.039.078-.078.117-.078.117-.235.04-.313s-.197-.118-.275-.04c-.04 0-.04.04-.078.04-.079.039-.157.078-.274.117-.079.04-.196.04-.275.079h-.626a2.2 2.2 0 0 1-.665-.196c-.235-.078-.431-.235-.627-.392-.196-.156-.352-.391-.47-.587a2.1 2.1 0 0 1-.274-.744c-.039-.117-.039-.274-.039-.391v-.197c0-.077 0-.156.04-.234a3.1 3.1 0 0 1 .86-1.605c.118-.118.235-.196.353-.314.117-.078.274-.156.391-.234.157-.079.314-.118.431-.157.157-.04.313-.078.47-.078h.47c.156 0 .352.039.509.078.352.078.665.196.979.391.626.353 1.135.901 1.487 1.527.157.314.274.666.353 1.018 0 .079.039.196.039.274v.627c0 .117 0 .196-.04.313 0 .078-.038.196-.038.274s-.04.196-.079.274a2.3 2.3 0 0 1-.195.548 7 7 0 0 1-.588 1.058c-.47.626-1.096 1.174-1.84 1.487a5.5 5.5 0 0 1-1.135.353c-.196.039-.392.039-.588.078h-.274c.04 0 0 0 0 0h-.313a6.4 6.4 0 0 1-1.253-.235 6 6 0 0 1-1.174-.47 6.4 6.4 0 0 1-1.958-1.605 3.7 3.7 0 0 1-.666-1.057 7.4 7.4 0 0 1-.47-1.175 4.4 4.4 0 0 1-.195-1.213v-.744c0-.196.039-.431.039-.627.039-.196.078-.43.117-.626s.079-.43.157-.627c.117-.391.274-.783.43-1.174.353-.744.784-1.41 1.332-1.919a4 4 0 0 1 .43-.391c.157-.118.314-.235.47-.314a3 3 0 0 1 .47-.274l.235-.117c.04 0 .078-.04.118-.04s.078-.038.117-.038c.157-.079.352-.118.509-.196.04 0 .078-.04.117-.04s.079-.038.118-.038c.078-.04.196-.04.274-.079.04 0 .078-.039.157-.039.039 0 .078 0 .156-.039.04 0 .079 0 .157-.04h.156c.04 0 .079 0 .157-.038.04 0 .117 0 .157-.04h.665s.04 0 0 0h.705q.529 0 1.057.118c.666.117 1.292.352 1.88.626s1.096.627 1.526 1.018l.079.079.078.078c.04.04.118.078.157.157.039.078.117.078.156.156.04.079.118.118.157.157.196.196.352.391.509.626.313.392.587.822.783 1.214 0 .04.04.04.04.078 0 .04.038.04.038.079.04.039.04.078.078.156.04.04.04.079.079.157.039.039.039.078.078.156.078.196.157.353.196.51.078.274.157.508.196.704.039.079.117.157.195.118a.17.17 0 0 0 .157-.157c.157-.47.157-.744.117-1.018" transform="translate(1.829 1)scale(.99805)"/>
</svg>
